icons/archive-16.svg

<svg xmlns="http://www.w3.org/2000/svg" width="16" height="16" viewBox="0 0 16 16">
  <defs/>
  <path d="M0,2.75 C0,1.784 0.784,1 1.75,1 L14.25,1 C15.216,1 16,1.784 16,2.75 L16,4.25 C16,5.216 15.216,6 14.25,6 L1.75,6 C0.784,6 0,5.216 0,4.25 Z M1.75,7 C2.164,7 2.5,7.336 2.5,7.75 L2.5,13.25 C2.5,13.388 2.612,13.5 2.75,13.5 L13.25,13.5 C13.388,13.5 13.5,13.388 13.5,13.25 L13.5,7.75 C13.5,7.336 13.836,7 14.25,7 C14.664,7 15,7.336 15,7.75 L15,13.25 C15,14.216 14.216,15 13.25,15 L2.75,15 C1.784,15 1,14.216 1,13.25 L1,7.75 C1,7.336 1.336,7 1.75,7 Z M1.75,2.5 C1.612,2.5 1.5,2.612 1.5,2.75 L1.5,4.25 C1.5,4.388 1.612,4.5 1.75,4.5 L14.25,4.5 C14.388,4.5 14.5,4.388 14.5,4.25 L14.5,2.75 C14.5,2.612 14.388,2.5 14.25,2.5 Z M6.25,8 L9.75,8 C10.164,8 10.5,8.336 10.5,8.75 C10.5,9.164 10.164,9.5 9.75,9.5 L6.25,9.5 C5.836,9.5 5.5,9.164 5.5,8.75 C5.5,8.336 5.836,8 6.25,8 Z"/>
</svg>

<svg xmlns="http://www.w3.org/2000/svg" width="16" height="16" viewBox="0 0 16 16"><path fill-rule="evenodd" d="M1.75 2.5a.25.25 0 00-.25.25v1.5c0 .138.112.25.25.25h12.5a.25.25 0 00.25-.25v-1.5a.25.25 0 00-.25-.25H1.75zM0 2.75C0 1.784.784 1 1.75 1h12.5c.966 0 1.75.784 1.75 1.75v1.5A1.75 1.75 0 0114.25 6H1.75A1.75 1.75 0 010 4.25v-1.5zM1.75 7a.75.75 0 01.75.75v5.5c0 .138.112.25.25.25h10.5a.25.25 0 00.25-.25v-5.5a.75.75 0 111.5 0v5.5A1.75 1.75 0 0113.25 15H2.75A1.75 1.75 0 011 13.25v-5.5A.75.75 0 011.75 7zm4.5 1a.75.75 0 000 1.5h3.5a.75.75 0 100-1.5h-3.5z"/></svg>
